!! 00006] TT[TB
!! Eigene Aufnahme
!!!OTL: Siji hua'r kai, Dui chang)
!!!ARE: Asia, China,ˇHunan, Sangzhi
!! Ethnic Group: Han
!! I, 574
!!!SCT: C1394
!!!YEM: Copyright 1995, estate of Helmut Schaffrath.
**kern
*ICvox
*Ivox
*M4/4
*k[b-]
*F:
{8f
8g
8f
8d
2cc
=1
8ff
16dd
16cc
16a
16g
16cc
16a
2g}
=2
{8g
16g
16a
8dd
16dd
16dd
8cc
16a
16g
16g
16f
16d
16c
=3
16a
16a
16f
16a
16g
16f
8d
16c
8c
16d
8c}
{16eexx
=4
8cc
16cc
8dxxx
8cc
16cc
8dxxx}
{8f
16g
16a
16g
16f
8d
16a
16cc
16g
16a
4cc
=5
16ff
16ff
16dd
16cc
16a
16g
16cc
16a
16g
16a
16f
16a
4g}
=6
{8cc
16cc
16d
4r
8cc
16cc
16d
8r}
{16g
16f
=7
16cc
16dd
16a
16g
16cc
16dd
16a
16g
16f
16g
16a
16cc
8.g
16a
=8
8.f
16a
16g
16f
8d
2c}
==
!!!AGN: Xiaodiao, MengjiangnÅ diao. Chang hua niao
!! Doublette zu  C0136. Saengerin: Huang Bai
!!    Wenig Verzierungen. Die Rhythm-notation enthaelt Zungenschnalzen.
!!    VARIANTE. Kleinere glissandi.
!!!ONB: ESAC (Essen Associative Code) Database: CHINA
!!!AMT: simple quadruple
!!!AIN: vox
!!!EED: Helmut Schaffrath
!!!EEV: 1.0
*-
